public/dotted.svg

<svg xmlns="http://www.w3.org/2000/svg" width="4173" height="167" viewBox="0 0 4173 167">
  <g id="dotted" transform="translate(17.1 -166.5)">
    <g id="Layer_1">
      <g id="Group_84" data-name="Group 84">
        <circle id="Ellipse_65" data-name="Ellipse 65" cx="83.5" cy="83.5" r="83.5" transform="translate(-17.1 166.5)" fill="#f6c649"/>
        <circle id="Ellipse_66" data-name="Ellipse 66" cx="83.5" cy="83.5" r="83.5" transform="translate(400.2 166.5)"/>
        <circle id="Ellipse_67" data-name="Ellipse 67" cx="83.5" cy="83.5" r="83.5" transform="translate(817.5 166.5)" fill="#0f4996"/>
        <path id="Path_96" data-name="Path 96" d="M233.3,250a83.52,83.52,0,0,1-83.5,83.5V166.6a83.52,83.52,0,0,1,83.5,83.5Z" fill="#0f4996"/>
        <path id="Path_97" data-name="Path 97" d="M316.8,250a83.52,83.52,0,0,1-83.5,83.5V166.6a83.52,83.52,0,0,1,83.5,83.5Z" fill="#0f4996"/>
        <path id="Path_98" data-name="Path 98" d="M400.2,250a83.52,83.52,0,0,1-83.5,83.5V166.6a83.52,83.52,0,0,1,83.5,83.5Z" fill="#127cc4"/>
        <path id="Path_99" data-name="Path 99" d="M567.2,250a83.52,83.52,0,0,0,83.5,83.5V166.6a83.52,83.52,0,0,0-83.5,83.5Z" fill="#127cc4"/>
        <path id="Path_100" data-name="Path 100" d="M650.6,250a83.52,83.52,0,0,0,83.5,83.5V166.6a83.52,83.52,0,0,0-83.5,83.5Z" fill="#127cc4"/>
        <path id="Path_101" data-name="Path 101" d="M734.1,250a83.52,83.52,0,0,0,83.5,83.5V166.6a83.52,83.52,0,0,0-83.5,83.5Z" fill="#127cc4"/>
        <circle id="Ellipse_68" data-name="Ellipse 68" cx="83.5" cy="83.5" r="83.5" transform="translate(1485.2 166.5)" fill="#f6c649"/>
        <path id="Path_102" data-name="Path 102" d="M1819,250a83.52,83.52,0,0,1,83.5-83.5V333.4a83.52,83.52,0,0,1-83.5-83.5Z" fill="#f6c649"/>
        <path id="Path_103" data-name="Path 103" d="M1735.6,250a83.52,83.52,0,0,1,83.5-83.5V333.4a83.52,83.52,0,0,1-83.5-83.5Z" fill="#f6c649"/>
        <path id="Path_104" data-name="Path 104" d="M1735.6,250a83.52,83.52,0,0,0-83.5-83.5V333.4a83.52,83.52,0,0,0,83.5-83.5Z"/>
        <path id="Path_105" data-name="Path 105" d="M1151.4,250a83.52,83.52,0,0,0-83.5-83.5V333.4a83.52,83.52,0,0,0,83.5-83.5Z"/>
        <path id="Path_106" data-name="Path 106" d="M1067.9,250a83.52,83.52,0,0,0-83.5-83.5V333.4a83.52,83.52,0,0,0,83.5-83.5Z"/>
        <circle id="Ellipse_69" data-name="Ellipse 69" cx="83.5" cy="83.5" r="83.5" transform="translate(1902.5 166.5)" fill="#0f4996"/>
        <path id="Path_107" data-name="Path 107" d="M1401.7,250a83.52,83.52,0,0,0-83.5-83.5V333.4a83.52,83.52,0,0,0,83.5-83.5Z" fill="#0f4996"/>
        <circle id="Ellipse_70" data-name="Ellipse 70" cx="83.5" cy="83.5" r="83.5" transform="translate(1151.3 166.5)" fill="#127cc4"/>
        <path id="Path_108" data-name="Path 108" d="M1401.7,250a83.52,83.52,0,0,1,83.5-83.5V333.4a83.52,83.52,0,0,1-83.5-83.5Z" fill="#127cc4"/>
        <circle id="Ellipse_71" data-name="Ellipse 71" cx="83.5" cy="83.5" r="83.5" transform="translate(2069.4 166.5)" fill="#f6c649"/>
        <circle id="Ellipse_72" data-name="Ellipse 72" cx="83.5" cy="83.5" r="83.5" transform="translate(2486.7 166.5)"/>
        <circle id="Ellipse_73" data-name="Ellipse 73" cx="83.5" cy="83.5" r="83.5" transform="translate(2903.9 166.5)" fill="#0f4996"/>
        <path id="Path_109" data-name="Path 109" d="M2319.8,250a83.52,83.52,0,0,1-83.5,83.5V166.6a83.52,83.52,0,0,1,83.5,83.5Z" fill="#0f4996"/>
        <path id="Path_110" data-name="Path 110" d="M2403.2,250a83.52,83.52,0,0,1-83.5,83.5V166.6a83.52,83.52,0,0,1,83.5,83.5Z" fill="#0f4996"/>
        <path id="Path_111" data-name="Path 111" d="M2486.7,250a83.52,83.52,0,0,1-83.5,83.5V166.6a83.52,83.52,0,0,1,83.5,83.5Z" fill="#127cc4"/>
        <path id="Path_112" data-name="Path 112" d="M2653.6,250a83.52,83.52,0,0,0,83.5,83.5V166.6a83.52,83.52,0,0,0-83.5,83.5Z" fill="#127cc4"/>
        <path id="Path_113" data-name="Path 113" d="M2737.1,250a83.52,83.52,0,0,0,83.5,83.5V166.6a83.52,83.52,0,0,0-83.5,83.5Z" fill="#127cc4"/>
        <path id="Path_114" data-name="Path 114" d="M2820.5,250a83.52,83.52,0,0,0,83.5,83.5V166.6a83.52,83.52,0,0,0-83.5,83.5Z" fill="#127cc4"/>
        <circle id="Ellipse_74" data-name="Ellipse 74" cx="83.5" cy="83.5" r="83.5" transform="translate(3571.6 166.5)" fill="#f6c649"/>
        <path id="Path_115" data-name="Path 115" d="M3905.5,250a83.52,83.52,0,0,1,83.5-83.5V333.4a83.52,83.52,0,0,1-83.5-83.5Z" fill="#f6c649"/>
        <path id="Path_116" data-name="Path 116" d="M3822,250a83.52,83.52,0,0,1,83.5-83.5V333.4a83.52,83.52,0,0,1-83.5-83.5Z" fill="#f6c649"/>
        <path id="Path_117" data-name="Path 117" d="M3822,250a83.52,83.52,0,0,0-83.5-83.5V333.4a83.52,83.52,0,0,0,83.5-83.5Z"/>
        <path id="Path_118" data-name="Path 118" d="M3237.8,250a83.52,83.52,0,0,0-83.5-83.5V333.4a83.52,83.52,0,0,0,83.5-83.5Z"/>
        <path id="Path_119" data-name="Path 119" d="M3154.4,250a83.52,83.52,0,0,0-83.5-83.5V333.4a83.52,83.52,0,0,0,83.5-83.5Z"/>
        <circle id="Ellipse_75" data-name="Ellipse 75" cx="83.5" cy="83.5" r="83.5" transform="translate(3988.9 166.5)" fill="#0f4996"/>
        <path id="Path_120" data-name="Path 120" d="M3488.2,250a83.52,83.52,0,0,0-83.5-83.5V333.4a83.52,83.52,0,0,0,83.5-83.5Z" fill="#0f4996"/>
        <circle id="Ellipse_76" data-name="Ellipse 76" cx="83.5" cy="83.5" r="83.5" transform="translate(3237.8 166.5)" fill="#127cc4"/>
        <path id="Path_121" data-name="Path 121" d="M3488.2,250a83.52,83.52,0,0,1,83.5-83.5V333.4a83.52,83.52,0,0,1-83.5-83.5Z" fill="#127cc4"/>
      </g>
    </g>
  </g>
</svg>

<?xml version="1.0" encoding="UTF-8"?>
<svg xmlns="http://www.w3.org/2000/svg" version="1.1" viewBox="0 0 2000 500">
  <defs>
    <style>
      .cls-1 {
        fill: #f6c649;
      }

      .cls-2 {
        fill: #0f4996;
      }

      .cls-3 {
        fill: #127cc4;
      }
    </style>
  </defs>
  <!-- Generator: Adobe Illustrator 28.6.0, SVG Export Plug-In . SVG Version: 1.2.0 Build 709)  -->
  <g>
    <g id="Layer_1">
      <g>
        <circle class="cls-1" cx="66.4" cy="250" r="83.5"/>
        <circle cx="483.7" cy="250" r="83.5"/>
        <circle class="cls-2" cx="901" cy="250" r="83.5"/>
        <path class="cls-2" d="M233.3,250c0,46.1-37.4,83.5-83.5,83.5v-166.9c46.1,0,83.5,37.4,83.5,83.5Z"/>
        <path class="cls-2" d="M316.8,250c0,46.1-37.4,83.5-83.5,83.5v-166.9c46.1,0,83.5,37.4,83.5,83.5Z"/>
        <path class="cls-3" d="M400.2,250c0,46.1-37.4,83.5-83.5,83.5v-166.9c46.1,0,83.5,37.4,83.5,83.5Z"/>
        <path class="cls-3" d="M567.2,250c0,46.1,37.4,83.5,83.5,83.5v-166.9c-46.1,0-83.5,37.4-83.5,83.5Z"/>
        <path class="cls-3" d="M650.6,250c0,46.1,37.4,83.5,83.5,83.5v-166.9c-46.1,0-83.5,37.4-83.5,83.5Z"/>
        <path class="cls-3" d="M734.1,250c0,46.1,37.4,83.5,83.5,83.5v-166.9c-46.1,0-83.5,37.4-83.5,83.5Z"/>
        <circle class="cls-1" cx="1568.7" cy="250" r="83.5"/>
        <path class="cls-1" d="M1819,250c0-46.1,37.4-83.5,83.5-83.5v166.9c-46.1,0-83.5-37.4-83.5-83.5Z"/>
        <path class="cls-1" d="M1735.6,250c0-46.1,37.4-83.5,83.5-83.5v166.9c-46.1,0-83.5-37.4-83.5-83.5Z"/>
        <path d="M1735.6,250c0-46.1-37.4-83.5-83.5-83.5v166.9c46.1,0,83.5-37.4,83.5-83.5Z"/>
        <path d="M1151.4,250c0-46.1-37.4-83.5-83.5-83.5v166.9c46.1,0,83.5-37.4,83.5-83.5Z"/>
        <path d="M1067.9,250c0-46.1-37.4-83.5-83.5-83.5v166.9c46.1,0,83.5-37.4,83.5-83.5Z"/>
        <circle class="cls-2" cx="1986" cy="250" r="83.5"/>
        <path class="cls-2" d="M1401.7,250c0-46.1-37.4-83.5-83.5-83.5v166.9c46.1,0,83.5-37.4,83.5-83.5Z"/>
        <circle class="cls-3" cx="1234.8" cy="250" r="83.5"/>
        <path class="cls-3" d="M1401.7,250c0-46.1,37.4-83.5,83.5-83.5v166.9c-46.1,0-83.5-37.4-83.5-83.5Z"/>
        <circle class="cls-1" cx="2152.9" cy="250" r="83.5"/>
        <circle cx="2570.2" cy="250" r="83.5"/>
        <circle class="cls-2" cx="2987.4" cy="250" r="83.5"/>
        <path class="cls-2" d="M2319.8,250c0,46.1-37.4,83.5-83.5,83.5v-166.9c46.1,0,83.5,37.4,83.5,83.5Z"/>
        <path class="cls-2" d="M2403.2,250c0,46.1-37.4,83.5-83.5,83.5v-166.9c46.1,0,83.5,37.4,83.5,83.5Z"/>
        <path class="cls-3" d="M2486.7,250c0,46.1-37.4,83.5-83.5,83.5v-166.9c46.1,0,83.5,37.4,83.5,83.5Z"/>
        <path class="cls-3" d="M2653.6,250c0,46.1,37.4,83.5,83.5,83.5v-166.9c-46.1,0-83.5,37.4-83.5,83.5Z"/>
        <path class="cls-3" d="M2737.1,250c0,46.1,37.4,83.5,83.5,83.5v-166.9c-46.1,0-83.5,37.4-83.5,83.5Z"/>
        <path class="cls-3" d="M2820.5,250c0,46.1,37.4,83.5,83.5,83.5v-166.9c-46.1,0-83.5,37.4-83.5,83.5Z"/>
        <circle class="cls-1" cx="3655.1" cy="250" r="83.5"/>
        <path class="cls-1" d="M3905.5,250c0-46.1,37.4-83.5,83.5-83.5v166.9c-46.1,0-83.5-37.4-83.5-83.5Z"/>
        <path class="cls-1" d="M3822,250c0-46.1,37.4-83.5,83.5-83.5v166.9c-46.1,0-83.5-37.4-83.5-83.5Z"/>
        <path d="M3822,250c0-46.1-37.4-83.5-83.5-83.5v166.9c46.1,0,83.5-37.4,83.5-83.5Z"/>
        <path d="M3237.8,250c0-46.1-37.4-83.5-83.5-83.5v166.9c46.1,0,83.5-37.4,83.5-83.5Z"/>
        <path d="M3154.4,250c0-46.1-37.4-83.5-83.5-83.5v166.9c46.1,0,83.5-37.4,83.5-83.5Z"/>
        <circle class="cls-2" cx="4072.4" cy="250" r="83.5"/>
        <path class="cls-2" d="M3488.2,250c0-46.1-37.4-83.5-83.5-83.5v166.9c46.1,0,83.5-37.4,83.5-83.5Z"/>
        <circle class="cls-3" cx="3321.3" cy="250" r="83.5"/>
        <path class="cls-3" d="M3488.2,250c0-46.1,37.4-83.5,83.5-83.5v166.9c-46.1,0-83.5-37.4-83.5-83.5Z"/>
      </g>
    </g>
  </g>
</svg>
